Newaita/actions/16/edit-select.svg

<svg height="16" viewBox="0 0 16 16" width="16" xmlns="http://www.w3.org/2000/svg"><g fill="#424242"><path d="m5.292969 5.171875c-.210938.195313-.269531.507813-.144531.769531l3.507812 7.25c.121094.25.390625.398438.667969.367188.277343-.03125.503906-.234375.566406-.507813l.609375-2.636719 2.640625-.609374c.269531-.0625.472656-.292969.503906-.570313s-.117187-.542969-.367187-.664063l-7.25-3.507812c-.246094-.121094-.535156-.074219-.734375.109375zm1.863281 1.898437 3.867188 1.871094-1.222657.28125c-.242187.054688-.433593.246094-.492187.492188l-.28125 1.21875zm0 0"/><path d="m4.960938 2.109375c-1.648438 0-2.976563 1.328125-2.976563 2.976563 0 1.648437 1.328125 2.976562 2.976563 2.976562.160156 0 .3125-.011719.464843-.035156l-.304687-.632813c-.054688.003907-.105469.007813-.160156.007813-1.28125 0-2.316407-1.035156-2.316407-2.316406s1.035157-2.316407 2.316407-2.316407c1.230468 0 2.230468.953125 2.3125 2.164063l.660156.320312c.003906-.054687.003906-.113281.003906-.167968 0-1.648438-1.328125-2.976563-2.976562-2.976563zm2.007812 4.136719c-.0625.105468-.132812.207031-.207031.300781.195312-.148437.460937-.175781.683593-.070313l.117188.058594zm-.371094.484375c-.074218.070312-.152344.140625-.238281.203125l.207031.421875c-.097656-.199219-.085937-.4375.03125-.625zm0 0"/></g></svg>

<svg xmlns="http://www.w3.org/2000/svg" xmlns:xlink="http://www.w3.org/1999/xlink" width="16px" height="16px" viewBox="0 0 16 16" version="1.1">
<g id="surface1">
     <defs>
  <style id="current-color-scheme" type="text/css">
   .ColorScheme-Text { color:#424242; } .ColorScheme-Highlight { color:#eeeeee; }
  </style>
 </defs>
<path style="fill:currentColor" class="ColorScheme-Text" d="M 5.292969 5.171875 C 5.082031 5.367188 5.023438 5.679688 5.148438 5.941406 L 8.65625 13.191406 C 8.777344 13.441406 9.046875 13.589844 9.324219 13.558594 C 9.601562 13.527344 9.828125 13.324219 9.890625 13.050781 L 10.5 10.414062 L 13.140625 9.804688 C 13.410156 9.742188 13.613281 9.511719 13.644531 9.234375 C 13.675781 8.957031 13.527344 8.691406 13.277344 8.570312 L 6.027344 5.0625 C 5.78125 4.941406 5.492188 4.988281 5.292969 5.171875 Z M 7.15625 7.070312 L 11.023438 8.941406 L 9.800781 9.222656 C 9.558594 9.277344 9.367188 9.46875 9.308594 9.714844 L 9.027344 10.933594 Z M 7.15625 7.070312 "/>
     <defs>
  <style id="current-color-scheme" type="text/css">
   .ColorScheme-Text { color:#424242; } .ColorScheme-Highlight { color:#eeeeee; }
  </style>
 </defs>
<path style="fill:currentColor" class="ColorScheme-Text" d="M 4.960938 2.109375 C 3.3125 2.109375 1.984375 3.4375 1.984375 5.085938 C 1.984375 6.734375 3.3125 8.0625 4.960938 8.0625 C 5.121094 8.0625 5.273438 8.050781 5.425781 8.027344 L 5.121094 7.394531 C 5.066406 7.398438 5.015625 7.402344 4.960938 7.402344 C 3.679688 7.402344 2.644531 6.367188 2.644531 5.085938 C 2.644531 3.804688 3.679688 2.769531 4.960938 2.769531 C 6.191406 2.769531 7.191406 3.722656 7.273438 4.933594 L 7.933594 5.253906 C 7.9375 5.199219 7.9375 5.140625 7.9375 5.085938 C 7.9375 3.4375 6.609375 2.109375 4.960938 2.109375 Z M 6.96875 6.246094 C 6.90625 6.351562 6.835938 6.453125 6.761719 6.546875 C 6.957031 6.398438 7.222656 6.371094 7.445312 6.476562 L 7.5625 6.535156 Z M 6.597656 6.730469 C 6.523438 6.800781 6.445312 6.871094 6.359375 6.933594 L 6.566406 7.355469 C 6.46875 7.15625 6.480469 6.917969 6.597656 6.730469 Z M 6.597656 6.730469 "/>
</g>
</svg>
